X:8381
%17626
T:Ton simple plin
%T:TS3
G:Kazimodal
R:Dañs Plin
C:Traditionnel
Q:C2/1=160
P:C5
M:4/4
S:Tonioù Breizh-Izel 1213 (Duod)
K:Am
P:C
\large
"Am"A,E/2E/2 sEsF "G"DF "F"s{EF}sEC |1 "C"A,E/2E/2 sEsF "Dm"DF "Em"E2 \
:|2 "Dm"A,D/2D/2 DE "F"C2 "Am"A,2|
"Am"s{CD}sC/2B,/2C "F"A,>A, "Dm"CA, "G"B,2 |1 "C"s{EF}sEA, "Dm"sB,sC "F"DC "G"B, \

%Warning : No repeat expected, found :|
:|2 "Am"EA "F"sc/2sB/2A "G"BG "D"A2 
%Error : Bar 5 is 15/8 not 4/4
||
\bigskip


